images/courses/animation_101/cloud.svg

<?xml version="1.0" standalone="no"?>
<!DOCTYPE svg PUBLIC "-//W3C//DTD SVG 1.1//EN" "http://www.w3.org/Graphics/SVG/1.1/DTD/svg11.dtd">
<svg width="100px" height="64px" version="1.1" xmlns="http://www.w3.org/2000/svg" xmlns:xlink="http://www.w3.org/1999/xlink" xml:space="preserve" style="fill-rule:evenodd;clip-rule:evenodd;stroke-linejoin:round;stroke-miterlimit:1.41421;">
    <g>
        <g id="Layer1">
            <g>
                <path d="M26.2648,10.894C40.7705,10.894 52.5296,22.7822 52.5296,37.447C52.5296,52.1118 40.7705,64 26.2648,64C11.7592,64 -4.26326e-13,52.1118 -4.26326e-13,37.447C-4.26326e-13,22.7822 11.7592,10.894 26.2648,10.894Z" style="fill:white;"/>
                <path d="M49.5368,-7.10543e-15C67.0181,-7.10543e-15 81.1895,14.3269 81.1895,32C81.1895,49.6731 67.0181,64 49.5368,64C32.0555,64 17.8841,49.6731 17.8841,32C17.8841,14.3269 32.0555,-7.10543e-15 49.5368,-7.10543e-15Z" style="fill:white;"/>
                <g>
                    <path d="M81.1895,25.9663C91.5783,25.9663 100,34.4804 100,44.9832C100,55.4859 91.5783,64 81.1895,64C70.8008,64 62.3791,55.4859 62.3791,44.9832C62.3791,34.4804 70.8008,25.9663 81.1895,25.9663Z" style="fill:white;"/>
                </g>
            </g>
        </g>
    </g>
</svg>

<svg width="100" height="64" xmlns="http://www.w3.org/2000/svg" fill-rule="evenodd" clip-rule="evenodd" stroke-linejoin="round" stroke-miterlimit="1.414"><path d="M26.265 10.894c14.505 0 26.265 11.888 26.265 26.553C52.53 52.112 40.77 64 26.265 64 11.76 64 0 52.112 0 37.447c0-14.665 11.76-26.553 26.265-26.553z" fill="#fff"/><path d="M49.537 0C67.017 0 81.19 14.327 81.19 32c0 17.673-14.172 32-31.653 32-17.48 0-31.653-14.327-31.653-32 0-17.673 14.172-32 31.653-32z" fill="#fff"/><path d="M81.19 25.966c10.388 0 18.81 8.514 18.81 19.017S91.578 64 81.19 64c-10.39 0-18.81-8.514-18.81-19.017s8.42-19.017 18.81-19.017z" fill="#fff"/></svg>
